Origami/64x64/apps/rust.svg

<svg width="64" height="64" version="1" xmlns="http://www.w3.org/2000/svg">
 <rect transform="matrix(0,-1,-1,0,0,0)" x="-60" y="-60" width="56" height="56" rx="3" ry="3" style="fill:#c2352a"/>
 <path d="m7 4c-1.662 0-3 1.338-3 3v1c0-1.662 1.338-3 3-3h50c1.662 0 3 1.338 3 3v-1c0-1.662-1.338-3-3-3h-50z" style="fill:#ffffff;opacity:.1"/>
 <path d="m4 57v1c0 1.662 1.338 3 3 3h50c1.662 0 3-1.338 3-3v-1c0 1.662-1.338 3-3 3h-50c-1.662 0-3-1.338-3-3z" style="opacity:.2"/>
 <g transform="matrix(1.9997082 0 0 1.9999432 .00204243 3.00034)" style="opacity:.2">
  <rect transform="matrix(.70710678 .70710678 -.70710678 .70710678 0 0)" x="22.63" y="-1.41" width="1.414" height="1.414"/>
  <path d="m20 6-1 6h-4l-1-6z"/>
  <path d="m15 13h4v1h-4z"/>
  <g transform="matrix(0,-1,1,0,1,33)">
   <path d="m20 6-1 6h-4l-1-6z"/>
   <path d="m15 13h4v1h-4z"/>
  </g>
  <g transform="matrix(-.70711 .70711 -.70711 -.70711 40.335 15.101)">
   <path d="m20 6-1 6h-4l-1-6z"/>
   <path d="m15 13h4v1h-4z"/>
  </g>
 </g>
 <g transform="matrix(1.9997082 0 0 1.9999432 .00204243 2.000341)" style="fill:#ffffff">
  <rect transform="matrix(.70710678 .70710678 -.70710678 .70710678 0 0)" x="22.63" y="-1.41" width="1.414" height="1.414"/>
  <path d="m20 6-1 6h-4l-1-6z"/>
  <path d="m15 13h4v1h-4z"/>
  <g transform="matrix(0,-1,1,0,1,33)">
   <path d="m20 6-1 6h-4l-1-6z"/>
   <path d="m15 13h4v1h-4z"/>
  </g>
  <g transform="matrix(-.70711 .70711 -.70711 -.70711 40.335 15.101)">
   <path d="m20 6-1 6h-4l-1-6z"/>
   <path d="m15 13h4v1h-4z"/>
  </g>
 </g>
</svg>

<svg xmlns="http://www.w3.org/2000/svg" width="64" height="64" version="1">
 <rect style="fill:#c2352a" width="56" height="56" x="-60" y="-60" rx="3" ry="3" transform="matrix(0,-1,-1,0,0,0)"/>
 <path style="opacity:0.1;fill:#ffffff" d="M 7 4 C 5.338 4 4 5.338 4 7 L 4 8 C 4 6.338 5.338 5 7 5 L 57 5 C 58.662 5 60 6.338 60 8 L 60 7 C 60 5.338 58.662 4 57 4 L 7 4 z"/>
 <path style="opacity:0.2" d="m 4,57 0,1 c 0,1.662 1.338,3 3,3 l 50,0 c 1.662,0 3,-1.338 3,-3 l 0,-1 c 0,1.662 -1.338,3 -3,3 L 7,60 C 5.338,60 4,58.662 4,57 Z"/>
 <g style="opacity:0.2" transform="matrix(1.9997082,0,0,1.9999432,0.00204243,3.00034)">
  <rect width="1.414" height="1.414" x="22.63" y="-1.41" transform="matrix(0.70710678,0.70710678,-0.70710678,0.70710678,0,0)"/>
  <g>
   <path d="m 20,6 -1,6 -4,0 -1,-6 z"/>
   <path d="m 15,13 4,0 0,1 -4,0 z"/>
  </g>
  <g transform="matrix(0,-1,1,0,1,33)">
   <path d="m 20,6 -1,6 -4,0 -1,-6 z"/>
   <path d="m 15,13 4,0 0,1 -4,0 z"/>
  </g>
  <g transform="matrix(-0.70711,0.70711,-0.70711,-0.70711,40.335,15.101)">
   <path d="m 20,6 -1,6 -4,0 -1,-6 z"/>
   <path d="m 15,13 4,0 0,1 -4,0 z"/>
  </g>
 </g>
 <g style="fill:#ffffff" transform="matrix(1.9997082,0,0,1.9999432,0.00204243,2.000341)">
  <rect width="1.414" height="1.414" x="22.63" y="-1.41" transform="matrix(0.70710678,0.70710678,-0.70710678,0.70710678,0,0)"/>
  <g>
   <path d="m 20,6 -1,6 -4,0 -1,-6 z"/>
   <path d="m 15,13 4,0 0,1 -4,0 z"/>
  </g>
  <g transform="matrix(0,-1,1,0,1,33)">
   <path d="m 20,6 -1,6 -4,0 -1,-6 z"/>
   <path d="m 15,13 4,0 0,1 -4,0 z"/>
  </g>
  <g transform="matrix(-0.70711,0.70711,-0.70711,-0.70711,40.335,15.101)">
   <path d="m 20,6 -1,6 -4,0 -1,-6 z"/>
   <path d="m 15,13 4,0 0,1 -4,0 z"/>
  </g>
 </g>
</svg>
